assets/img/braze_icons/tag-02.svg

<svg fill="none" height="24" viewBox="0 0 24 24" width="24" xmlns="http://www.w3.org/2000/svg"><path clip-rule="evenodd" d="m1.44206 4.76103c.18723-.30554.44114-.55897.72913-.84642l1.74329-1.7433c.28745-.28798.54089-.54189.84643-.72913.26842-.16449.56105-.2857.86716-.35919.34845-.083652.7072-.083318 1.11409-.08294h3.01565c.40689-.000377.76559-.00071 1.11409.08294.3061.07349.5987.19471.8671.35919.3056.18724.559.44115.8465.72913l7.7567 7.75676c.5692.56923 1.039 1.03893 1.3904 1.45293.365.4299.6606.865.829 1.383.261.8034.261 1.6688 0 2.4722-.1684.518-.464.9531-.829 1.383-.3514.4139-.8212.8837-1.3904 1.4529l-2.2703 2.2702c-.5691.5692-1.0389 1.039-1.4528 1.3904-.43.365-.865.6607-1.3831.829-.8033.261-1.6687.261-2.4721 0-.518-.1683-.9531-.464-1.383-.829-.414-.3514-.8838-.8212-1.45294-1.3904l-7.75677-7.7567c-.28799-.2875-.5419-.5409-.72913-.8464-.16449-.2684-.2857-.5611-.35919-.8672-.083655-.3484-.08332-.7072-.082942-1.11407v-3.01565c-.000378-.4069-.000712-.76564.082942-1.11409.07349-.30611.1947-.59874.35919-.86716zm6.55794 1.23897c-1.10457 0-2 .89543-2 2s.89543 2 2 2 2-.89543 2-2-.89543-2-2-2z" fill="#801ed7" fill-rule="evenodd"/></svg>

<svg width="24" height="24" viewBox="0 0 24 24" fill="none" xmlns="http://www.w3.org/2000/svg">
<path fill-rule="evenodd" clip-rule="evenodd" d="M1.44206 4.76103C1.62929 4.45549 1.8832 4.20206 2.17119 3.91461L3.91448 2.17131C4.20193 1.88333 4.45537 1.62942 4.76091 1.44218C5.02933 1.27769 5.32196 1.15648 5.62807 1.08299C5.97652 0.999338 6.33527 0.999672 6.74216 1.00005L9.75781 1.00005C10.1647 0.999673 10.5234 0.99934 10.8719 1.08299C11.178 1.15648 11.4706 1.2777 11.739 1.44218C12.0446 1.62942 12.298 1.88333 12.5855 2.17131L20.3422 9.92807C20.9114 10.4973 21.3812 10.967 21.7326 11.381C22.0976 11.8109 22.3932 12.246 22.5616 12.764C22.8226 13.5674 22.8226 14.4328 22.5616 15.2362C22.3932 15.7542 22.0976 16.1893 21.7326 16.6192C21.3812 17.0331 20.9114 17.5029 20.3422 18.0721L18.0719 20.3423C17.5028 20.9115 17.033 21.3813 16.6191 21.7327C16.1891 22.0977 15.7541 22.3934 15.236 22.5617C14.4327 22.8227 13.5673 22.8227 12.7639 22.5617C12.2459 22.3934 11.8108 22.0977 11.3809 21.7327C10.9669 21.3813 10.4971 20.9115 9.92796 20.3423L2.17119 12.5856C1.8832 12.2981 1.62929 12.0447 1.44206 11.7392C1.27757 11.4708 1.15636 11.1781 1.08287 10.872C0.999215 10.5236 0.99955 10.1648 0.999928 9.75793L0.999928 6.74228C0.99955 6.33538 0.999216 5.97664 1.08287 5.62819C1.15636 5.32208 1.27757 5.02945 1.44206 4.76103ZM8 6C6.89543 6 6 6.89543 6 8C6 9.10457 6.89543 10 8 10C9.10457 10 10 9.10457 10 8C10 6.89543 9.10457 6 8 6Z" fill="#801ED7"/>
</svg>
